Modules/BetterCms.Module.Root/Scss/assets/icons/overlay-drag-active.svg

<svg height="12" width="6" xmlns="http://www.w3.org/2000/svg" viewBox="0 0 6 12"><path fill="#0d7be3" fill-rule="evenodd" d="m0 1c0-.55.45-1 .99-1h4.02c.55 0 .99.44.99 1 0 .55-.45 1-.99 1h-4.02c-.55 0-.99-.44-.99-1m0 5c0-.55.45-1 .99-1h4.02c.55 0 .99.44.99 1 0 .55-.45 1-.99 1h-4.02c-.55 0-.99-.44-.99-1m0 5c0-.55.45-1 .99-1h4.02c.55 0 .99.44.99 1 0 .55-.45 1-.99 1h-4.02c-.55 0-.99-.44-.99-1"/></svg>

<?xml version="1.0" encoding="utf-8"?>
<!-- Generator: Avocode 2.4.5 - http://avocode.com -->
<svg height="12" width="6" xmlns:xlink="http://www.w3.org/1999/xlink" xmlns="http://www.w3.org/2000/svg" viewBox="0 0 6 12">
    <path fill="#0d7be3" fill-rule="evenodd" d="M 0 1 C 0 0.45 0.45 0 0.99 0 L 5.01 0 C 5.56 0 6 0.44 6 1 C 6 1.55 5.55 2 5.01 2 L 0.99 2 C 0.44 2 0 1.56 0 1 Z M 0 6 C 0 5.45 0.45 5 0.99 5 L 5.01 5 C 5.56 5 6 5.44 6 6 C 6 6.55 5.55 7 5.01 7 L 0.99 7 C 0.44 7 0 6.56 0 6 Z M 0 11 C 0 10.45 0.45 10 0.99 10 L 5.01 10 C 5.56 10 6 10.44 6 11 C 6 11.55 5.55 12 5.01 12 L 0.99 12 C 0.44 12 0 11.56 0 11 Z M 0 11" />
</svg>
